X: 17253
T: Herbert The Sherbert
R: jig
M: 6/8
K: Eminor
|:"Em"E2E e2e|"Am"cBA "Em"B3|GBA GFE|"D"FAG FED|
"Em"E2E e2e|"Am"cBA "Em"B3|GBA GFE|"D"AGF "Em"E3:|
|:"Em"EFG "D"F3|"Em"EFG "D"F3|"Em"e2f gfe|"D"ded "Em"B3|
"D"ded "Am"A3|"D"ded "Em"G3|"D"d2e "G"dBG|"D"AGF "Em"E3:|
|:"Em"g2g "D"f2f|"Em"efe B3|g2g "D"f2f|"Em"efe "B"^d3|"Em"g2g "D"f2f|
"Em"efe B3|1 "C"cBc "D"d3|"Bm"BAB "Em"e3:|2 "C"cde "G"dcB|"D"AGF "Em"E3||

